X: 15
T: Franc A'Phoill
Z: Erik-Fiddler
S: https://thesession.org/tunes/31#setting52333
R: jig
M: 6/8
L: 1/8
K: Dmix
|:A2 D B2 D|A2 G FED|A2 D B2 F|GEF GE/F/G|
A2 D B2 D|A2 G FED|CEG cBA|1GEF GFE:|2GEF GA/B/^c||
|:dfa afd|ded ^cAF|GAB =cAF|GEF GFE|
dfa af/g/a|geg fdg|ecA GEF|GEF GFE:|
|:[D3d3] [D3d3]|dAG FED|ded dAF|GEF GA/B/^c|
dfd cec|B/c/dB AGE|CE/F/G cBA|GEF GFE:|
|:dD/D/D ^cD/D/D|BD/D/D ^cD/D/D|dD/D/D ^cD/D/D|GEF GFE|
d(3D/D/D/D ^c(3D/D/D/D|B(3D/D/D/D A(3D/D/D/D|CE/F/G cBA|GEF GFE:|

